32x32/places/folder-github.svg

<svg xmlns="http://www.w3.org/2000/svg" width="32" height="32" version="1">
 <rect style="opacity:0.2" width="28" height="18" x="2" y="11" rx="1.4" ry="1.4"/>
 <path style="fill:#f4f4f7" d="M 2,22.6 C 2,23.376 2.6244,24 3.4,24 H 28.6 C 29.376,24 30,23.376 30,22.6 V 7.4 C 30,6.6244 29.376,6 28.6,6 H 16 C 13.9,6 13.2,3 11.1,3 H 3.4 C 2.6244,3 2,3.6244 2,4.4"/>
 <rect style="opacity:0.2" width="28" height="18" x="2" y="9" rx="1.4" ry="1.4"/>
 <rect style="fill:#f4f4f7" width="24" height="11" x="4" y="8" rx="1.4" ry="1.4"/>
 <rect style="fill:#323a41" width="28" height="18" x="2" y="10" rx="1.4" ry="1.4"/>
 <path style="opacity:0.1;fill:#f4f4f7" d="M 3.4004,3 C 2.6248,3 2,3.6248 2,4.4004 V 5.4004 C 2,4.6248 2.6248,4 3.4004,4 H 11.1 C 13.2,4 13.9,7 16,7 H 28.6 C 29.375,7 30,7.6248 30,8.4004 V 7.4004 C 30,6.6248 29.375,6 28.6,6 H 16 C 13.9,6 13.2,3 11.1,3 Z"/>
 <path style="fill:#f4f4f7" d="m 16,14 c -2.761424,0 -5,2.238576 -5,5 7.92e-4,2.207084 1.448598,4.152573 3.5625,4.787109 v -0.804687 c -1.265656,0.2793 -1.630859,-0.556641 -1.630859,-0.556641 -0.206993,-0.534138 -0.50586,-0.478156 -0.50586,-0.478156 -0.413144,-0.28665 0.03125,-0.28125 0.03125,-0.28125 0.347602,0.06261 0.658903,0.39224 0.895691,0.633129 0.164431,0.167279 0.184879,0.270156 0.605672,0.300926 0.258577,0.0367 0.49603,-0.01639 0.619731,-0.07286 0.01736,-0.125399 0.0194,-0.577036 0.02734,-0.814677 C 13.618537,21.281097 13.000263,20.428902 13,19.5 c 0.0014,-0.710006 0.364949,-1.386038 1,-1.859375 V 16 c 0.326285,0 0.718404,0.577667 1.037109,1.134766 C 15.347088,17.046328 15.672359,17.000803 16,17 c 0.327641,8.03e-4 0.652912,0.04633 0.962891,0.134766 C 17.281596,16.577667 17.673715,16 18,16 v 1.638672 c 0.635658,0.473791 0.999296,1.150641 1,1.861328 -0.0014,1.05337 -0.79497,1.993 -1.984375,2.349609 0.01555,0.332327 0.03711,0.714925 0.03711,1.013672 0,0.5207 -0.0028,0.35915 -0.0039,0.574219 v 0.445312 C 19.351442,23.388806 20.997199,21.355003 21,19 21,16.238576 18.761424,14 16,14 Z"/>
</svg>

<svg xmlns="http://www.w3.org/2000/svg" width="32" height="32" version="1"><rect style="opacity:.2" width="28" height="18" x="2" y="11" rx="1.4" ry="1.4"/><path style="fill:#f4f4f7" d="M2 22.6c0 .776.624 1.4 1.4 1.4h25.2c.776 0 1.4-.624 1.4-1.4V7.4c0-.776-.624-1.4-1.4-1.4H16c-2.1 0-2.8-3-4.9-3H3.4C2.624 3 2 3.624 2 4.4"/><rect style="opacity:.2" width="28" height="18" x="2" y="9" rx="1.4" ry="1.4"/><rect style="fill:#f4f4f7" width="24" height="11" x="4" y="8" rx="1.4" ry="1.4"/><rect style="fill:#323a41" width="28" height="18" x="2" y="10" rx="1.4" ry="1.4"/><path style="opacity:.1;fill:#f4f4f7" d="M3.4 3C2.625 3 2 3.625 2 4.4v1C2 4.625 2.625 4 3.4 4h7.7c2.1 0 2.8 3 4.9 3h12.6c.775 0 1.4.625 1.4 1.4v-1c0-.775-.625-1.4-1.4-1.4H16c-2.1 0-2.8-3-4.9-3z"/><path style="fill:#f4f4f7" d="M16 14a5 5 0 0 0-1.438 9.787v-.805c-1.265.28-1.63-.556-1.63-.556-.207-.534-.506-.478-.506-.478-.413-.287.031-.282.031-.282.348.063.659.393.896.634.164.167.185.27.605.3.259.037.496-.016.62-.072.017-.126.02-.577.027-.815C13.62 21.28 13 20.429 13 19.5c.001-.71.365-1.386 1-1.86V16c.326 0 .718.578 1.037 1.135.31-.089.635-.134.963-.135.328 0 .653.046.963.135.319-.557.71-1.135 1.037-1.135v1.639c.636.473 1 1.15 1 1.861-.001 1.053-.795 1.993-1.984 2.35.015.332.037.715.037 1.013 0 .521-.003.36-.004.575v.445A5 5 0 0 0 21 19a5 5 0 0 0-5-5z"/></svg>
